icons/user-settings-line.svg

<svg xmlns="http://www.w3.org/2000/svg" width="24" height="24" fill="none"><g clip-path="url(#a)"><g><path fill="#121212" d="M12 14V16C10.4087 16 8.88258 16.6321 7.75736 17.7574C6.63214 18.8826 6 20.4087 6 22H4C4 19.8783 4.84285 17.8434 6.34315 16.3431C7.84344 14.8429 9.87827 14 12 14ZM12 13C8.685 13 6 10.315 6 7C6 3.685 8.685 1 12 1C15.315 1 18 3.685 18 7C18 10.315 15.315 13 12 13ZM12 11C14.21 11 16 9.21 16 7C16 4.79 14.21 3 12 3C9.79 3 8 4.79 8 7C8 9.21 9.79 11 12 11ZM14.595 18.812C14.4682 18.2784 14.4682 17.7226 14.595 17.189L13.603 16.616L14.603 14.884L15.595 15.457C15.9932 15.0799 16.4745 14.8017 17 14.645V13.5H19V14.645C19.532 14.803 20.012 15.085 20.405 15.457L21.397 14.884L22.397 16.616L21.405 17.189C21.5316 17.7222 21.5316 18.2778 21.405 18.811L22.397 19.384L21.397 21.116L20.405 20.543C20.0068 20.9201 19.5255 21.1983 19 21.355V22.5H17V21.355C16.4745 21.1983 15.9932 20.9201 15.595 20.543L14.603 21.116L13.603 19.384L14.595 18.812ZM18 19.5C18.3978 19.5 18.7794 19.342 19.0607 19.0607C19.342 18.7794 19.5 18.3978 19.5 18C19.5 17.6022 19.342 17.2206 19.0607 16.9393C18.7794 16.658 18.3978 16.5 18 16.5C17.6022 16.5 17.2206 16.658 16.9393 16.9393C16.658 17.2206 16.5 17.6022 16.5 18C16.5 18.3978 16.658 18.7794 16.9393 19.0607C17.2206 19.342 17.6022 19.5 18 19.5Z"/></g></g><defs><clipPath id="a"><rect width="24" height="24" fill="white"/></clipPath></defs></svg>

<svg width="24" height="24" fill="none" xmlns="http://www.w3.org/2000/svg"><g clip-path="url(#a)"><path d="M12 14v2a6 6 0 0 0-6 6H4a8 8 0 0 1 8-8Zm0-1c-3.315 0-6-2.685-6-6s2.685-6 6-6 6 2.685 6 6-2.685 6-6 6Zm0-2c2.21 0 4-1.79 4-4s-1.79-4-4-4-4 1.79-4 4 1.79 4 4 4Zm2.595 7.812a3.51 3.51 0 0 1 0-1.623l-.992-.573 1-1.732.992.573c.398-.377.88-.655 1.405-.812V13.5h2v1.145c.532.158 1.012.44 1.405.812l.992-.573 1 1.732-.992.573a3.511 3.511 0 0 1 0 1.622l.992.573-1 1.732-.992-.573c-.398.377-.88.655-1.405.812V22.5h-2v-1.145a3.497 3.497 0 0 1-1.405-.812l-.992.573-1-1.732.992-.572ZM18 19.5a1.5 1.5 0 1 0 0-3 1.5 1.5 0 0 0 0 3Z" /></g><defs><clipPath id="a"><path fill="#fff" d="M0 0h24v24H0z"/></clipPath></defs></svg>
